X: 1
T:Hackett's Schottiche
T:Basil Cosgrove's Pine Tree Flat Barn Dance
M:4/4
L:1/8
S:Basil Cosgrove
R:Schottische
A:New England, New South Wales, Australia
Z:Transcribed into ABC by John Furlonger
K:G
(3DEF|:G2 G>F G2- G>B|A>G A>B c2- (3cBc|d>g f>g e>c A>F|G>A (3BAG D2 (3DEF|
G2 G>F G2- G>B|A>G A>B c2- (3cBc|d>g f>g e>c A>F|G2 G>F G>A B>c|
d2 d>B d>B g>f|e>c A>c e2- e>f|93gfg f>g e>c A>F|G>A (3BAG D2- (3DBc|
d>B G>B d>B g>f|e>c A>c e2- e>f|(3gfg f>g e>c A>F|G2 G>F G2:|
